;TIME:518.87
;Filament used:0.47075m
;Layer height:0.200
; HEADER_BLOCK_START
; generated by Creality_Print V5.1.6.10470 on 2025-12-16 at 16:39:12
; total layer number: 75
; filament_density: 1.24
; filament_diameter: 1.75
; max_z_height: 15.00
; HEADER_BLOCK_END

; MINX = 126.14
; MINY = 74.87
; MINZ = 0.00
; MAXX = 141.14
; MAXY = 89.87
; MAXZ = 15.00

; THUMBNAIL_BLOCK_START

;
; THUMBNAIL_BLOCK_END

; THUMBNAIL_BLOCK_START

;
; THUMBNAIL_BLOCK_END

; external perimeters extrusion width = 0.42mm
; perimeters extrusion width = 0.45mm
; infill extrusion width = 0.45mm
; solid infill extrusion width = 0.42mm
; top infill extrusion width = 0.42mm
; first layer extrusion width = 0.50mm

; EXECUTABLE_BLOCK_START
M73 P0 R8
M201 X5000 Y5000 Z500 E5000
M203 X500 Y500 Z30 E100
M204 P5000 R2500 T5000 ; sets acceleration (P, T) and retract acceleration (R), mm/sec^2
M205 X10.00 Y10.00 Z0.40 E5.00 ; sets the jerk limits, mm/sec
;TYPE:Custom
M220 S100 ;Reset Feedrate 
M221 S100 ;Reset Flowrate 
 
M140 S50 ;Set final bed temp 
G28 ;Home 
 
G92 E0 ;Reset Extruder 
G1 Z2.0 F3000 ;Move Z Axis up 
M104 S190 ;Set final nozzle temp 
G1 X-2.1 Y20 Z0.28 F5000.0 ;Move to start position 
M190 S50 ;Wait for bed temp to stabilize 
M109 S190 ;Wait for nozzle temp to stabilize 
G1 X-2.1 Y145.0 Z0.28 F1500.0 E15 ;Draw the first line 
G1 X-2.4 Y145.0 Z0.28 F5000.0 ;Move to side a little 
M73 P1 R8
G1 X-2.4 Y20 Z0.28 F1500.0 E30 ;Draw the second line 
G92 E0  ;Reset Extruder 
G1 E-1.0000 F1800 ;Retract a bit 
M73 P2 R8
G1 Z2.0 F3000 ;Move Z Axis up 
G1 E0.0000 F1800
G90
G21
M83 ; use relative distances for extrusion
M106 S0
;LAYER_CHANGE
;Z:0.2
;HEIGHT:0.2
;BEFORE_LAYER_CHANGE
;0.2
G92 E0

G1 E-1.2 F2400
;_SET_FAN_SPEED_CHANGING_LAYER
M204 P500
M205 X10 Y10
; printing object Glorious Waasa (2).stl id:16436144047851250 copy 0
M204 T500
G1 X140.15 Y81.182 F9000
G1 Z.2
G1 E1.2 F1800
;TYPE:Inner wall
;WIDTH:0.527254
G1 X140.214 Y81.521 E.0132
G1 X140.275 Y82.529 E.03864
;WIDTH:0.526875
G3 X140.055 Y84.073 I-8.151 J-.376 E.0597
;WIDTH:0.510573
G1 X139.953 Y84.41 E.01302
;WIDTH:0.522138
G1 X139.76 Y84.921 E.02069
;WIDTH:0.527607
G1 X139.372 Y85.697 E.0332
G1 X138.896 Y86.421 E.03319
;WIDTH:0.539624
G3 X137.727 Y87.593 I-6.649 J-5.463 E.06504
;WIDTH:0.513796
G1 X137.466 Y87.779 E.01193
;WIDTH:0.545942
G1 X136.936 Y88.109 E.02479
G1 X135.905 Y88.589 E.04521
;WIDTH:0.545524
G1 X135.339 Y88.766 E.02355
;WIDTH:0.561855
G1 X134.488 Y88.925 E.03548
G1 X133.562 Y88.986 E.03804
;WIDTH:0.57512
G1 X132.757 Y88.912 E.03398
G1 X131.663 Y88.674 E.04706
;WIDTH:0.579381
G1 X131.1 Y88.461 E.02552
;WIDTH:0.584801
G1 X130.328 Y88.075 E.03695
G1 X129.608 Y87.598 E.03694
;WIDTH:0.600093
G3 X128.441 Y86.433 I5.421 J-6.597 E.07269
;WIDTH:0.573983
G1 X128.243 Y86.154 E.01439
;WIDTH:0.603868
G1 X127.928 Y85.648 E.02639
G1 X127.435 Y84.583 E.05201
;WIDTH:0.595403
G1 X127.269 Y84.053 E.02423
;WIDTH:0.611489
G1 X127.112 Y83.211 E.03846
G1 X127.053 Y82.198 E.04556
;WIDTH:0.611631
G1 X127.118 Y81.486 E.03211
G1 X127.335 Y80.454 E.04738
;WIDTH:0.599226
G1 X127.56 Y79.831 E.02911
;WIDTH:0.604627
G1 X127.946 Y79.06 E.03825
G1 X128.44 Y78.309 E.03991
;WIDTH:0.60129
G3 X129.609 Y77.142 I6.64 J5.486 E.07294
;WIDTH:0.574209
G1 X129.857 Y76.963 E.01287
;WIDTH:0.586287
G1 X130.359 Y76.648 E.02541
G1 X131.133 Y76.266 E.03704
;WIDTH:0.580867
G1 X131.948 Y75.981 E.03668
;WIDTH:0.576879
G3 X133.562 Y75.756 I1.972 J8.223 E.06886
;WIDTH:0.541362
G1 X133.892 Y75.764 E.01301
;WIDTH:0.563506
G1 X134.521 Y75.821 E.02597
G1 X135.628 Y76.059 E.04654
;WIDTH:0.541942
G1 X136.19 Y76.261 E.02355
;WIDTH:0.547074
G1 X136.969 Y76.652 E.03473
G1 X137.728 Y77.149 E.03614
;WIDTH:0.540805
G3 X138.895 Y78.32 I-5.48 J6.631 E.0651
;WIDTH:0.513468
G1 X139.12 Y78.642 E.0146
;WIDTH:0.528365
G1 X139.388 Y79.071 E.0194
G1 X139.772 Y79.848 E.03323
;WIDTH:0.522897
G1 X140.054 Y80.668 E.03288
;WIDTH:0.527254
G1 X140.143 Y81.142 E.01848
G1 X140.509 Y80.58 F9000
;TYPE:Outer wall
;WIDTH:0.499999
G1 F1800
G1 X140.683 Y81.49 E.03347
G1 X140.741 Y82.37 E.03184
G1 X140.679 Y83.303 E.03376
G1 X140.499 Y84.208 E.0333
G1 X140.201 Y85.087 E.03353
G1 X139.79 Y85.92 E.03353
G1 X139.274 Y86.692 E.03353
G1 X138.662 Y87.39 E.03353
G1 X137.964 Y88.002 E.03353
G1 X137.191 Y88.518 E.03353
G1 X136.359 Y88.929 E.03353
G1 X135.479 Y89.227 E.03353
G1 X134.569 Y89.409 E.03353
G1 X133.642 Y89.469 E.03352
G1 X132.709 Y89.407 E.03376
G1 X131.805 Y89.227 E.0333
G1 X130.925 Y88.929 E.03353
G1 X130.092 Y88.518 E.03353
G1 X129.32 Y88.002 E.03353
G1 X128.622 Y87.39 E.03352
G1 X128.006 Y86.687 E.03376
G1 X127.494 Y85.92 E.0333
G1 X127.083 Y85.087 E.03352
G1 X126.783 Y84.201 E.03376
G1 X126.604 Y83.297 E.0333
G1 X126.543 Y82.37 E.03352
G1 X126.605 Y81.437 E.03376
G1 X126.785 Y80.533 E.0333
G1 X127.083 Y79.653 E.03353
G1 X127.494 Y78.821 E.03353
G1 X128.01 Y78.048 E.03353
G1 X128.622 Y77.35 E.03353
G1 X129.32 Y76.738 E.03353
G1 X130.092 Y76.222 E.03353
G1 X130.925 Y75.811 E.03353
G1 X131.805 Y75.513 E.03353
G1 X132.715 Y75.332 E.03352
G1 X133.648 Y75.271 E.03376
G1 X134.569 Y75.332 E.0333
G1 X135.479 Y75.513 E.03353
G1 X136.358 Y75.811 E.03352
G1 X137.197 Y76.226 E.03376
G1 X137.964 Y76.738 E.0333
G1 X138.662 Y77.35 E.03353
G1 X139.274 Y78.048 E.03353
G1 X139.79 Y78.821 E.03353
G1 X140.18 Y79.612 E.03185
G3 X140.489 Y80.553 I-8.014 J3.154 E.03581
G1 E-1.2 F2400
;WIPE_START
G1 F9000
G1 X140.683 Y81.49
G1 X140.741 Y82.37
G1 X140.73 Y82.531
;WIPE_END
G1 X136.92 Y82.326 Z.4
G1 X127.645 Y81.825 Z.4
G1 Z.2
M73 P3 R8
G1 E1.2 F1800
;TYPE:Inner wall
;WIDTH:0.611631
G1 X127.678 Y81.586 E.01083
G3 X127.814 Y80.779 I22.764 J3.42 E.0368
;WIDTH:0.595547
G1 X127.924 Y80.367 E.0186
;WIDTH:0.604627
G3 X128.697 Y78.856 I18.439 J8.474 E.07531
;WIDTH:0.57546
G1 X128.828 Y78.672 E.00951
;WIDTH:0.60129
G3 X129.972 Y77.53 I18.016 J16.887 E.0713
;WIDTH:0.574209
G1 X130.215 Y77.346 E.01279
;WIDTH:0.580867
G1 X131.341 Y76.761 E.05395
G1 X131.824 Y76.543 E.0225
;WIDTH:0.576879
G3 X133.617 Y76.251 I3.939 J18.505 E.07666
;WIDTH:0.563506
G3 X135.25 Y76.471 I-.86 J12.515 E.0678
;WIDTH:0.547176
G1 X135.72 Y76.593 E.01934
;WIDTH:0.547074
G3 X137.23 Y77.368 I-8.783 J18.973 E.0676
;WIDTH:0.515053
G1 X137.406 Y77.494 E.00808
;WIDTH:0.540805
G3 X138.552 Y78.641 I-16.949 J18.079 E.0638
;WIDTH:0.513468
G1 X138.726 Y78.873 E.01077
;WIDTH:0.522897
G1 X139.331 Y80.034 E.04965
G1 X139.561 Y80.589 E.02278
;WIDTH:0.527254
G3 X139.826 Y82.265 I-21.838 J4.308 E.06494
;WIDTH:0.526875
G3 X139.594 Y83.99 I-13.613 J-.95 E.0666
;WIDTH:0.510573
G1 X139.494 Y84.358 E.01407
;WIDTH:0.527607
G3 X138.684 Y85.94 I-16.157 J-7.277 E.06807
;WIDTH:0.539624
G3 X137.405 Y87.249 I-13.786 J-12.181 E.07185
;WIDTH:0.545942
G3 X135.967 Y88.035 I-6.728 J-10.605 E.06515
;WIDTH:0.54049
G1 X135.513 Y88.218 E.01927
;WIDTH:0.561855
G3 X133.837 Y88.49 I-4.166 J-20.422 E.06958
;WIDTH:0.539996
G1 X133.617 Y88.492 E.00865
;WIDTH:0.57512
G3 X132.038 Y88.252 I2.907 J-24.392 E.06716
;WIDTH:0.558942
G1 X131.729 Y88.162 E.0131
;WIDTH:0.584801
G3 X130.143 Y87.353 I7.007 J-15.683 E.07626
;WIDTH:0.600093
G3 X128.829 Y86.071 I11.923 J-13.54 E.08085
;WIDTH:0.603868
G3 X128.057 Y84.66 I10.041 J-6.413 E.07129
;WIDTH:0.598469
G1 X127.854 Y84.161 E.02366
;WIDTH:0.611489
G3 X127.587 Y82.485 I21.139 J-4.228 E.07623
;WIDTH:0.580851
G1 X127.587 Y82.258 E.00965
;WIDTH:0.611631
G1 X127.64 Y81.865 E.01783
G1 X128.083 Y82.378 F9000
;TYPE:Outer wall
;WIDTH:0.499999
G1 F1800
G1 X128.344 Y80.66 E.06275
G3 X129.153 Y79.048 I87.746 J43.017 E.06513
G1 X130.378 Y77.822 E.06257
G3 X131.948 Y77.01 I19.397 J35.558 E.06382
G3 X133.692 Y76.722 I13.729 J77.833 E.06382
G3 X135.439 Y76.988 I-7.054 J52.321 E.06382
G3 X137.019 Y77.78 I-41.05 J83.812 E.06382
G3 X138.277 Y79.022 I-46.961 J48.816 E.06382
G3 X139.089 Y80.592 I-37.812 J20.563 E.06382
G3 X139.377 Y82.336 I-83.374 J14.643 E.06382
G3 X139.111 Y84.084 I-60.265 J-8.261 E.06382
G3 X138.305 Y85.687 I-68.275 J-33.325 E.06479
G3 X137.077 Y86.921 I-134.498 J-132.593 E.06288
G3 X135.507 Y87.734 I-24.807 J-46.012 E.06382
G3 X133.763 Y88.021 I-15.908 J-91.053 E.06382
G3 X132.016 Y87.756 I9.143 J-66.072 E.06382
G3 X130.378 Y86.921 I12.94 J-27.421 E.06638
G1 X129.178 Y85.721 E.06127
G3 X128.366 Y84.152 I43.756 J-23.64 E.06382
G3 X128.08 Y82.418 I85.551 J-15.001 E.06344
; stop printing object Glorious Waasa (2).stl id:16436144047851250 copy 0
G1 E-1.2 F2400
;WIPE_START
G1 F9000
G1 X128.344 Y80.66
G1 X128.443 Y80.461
;WIPE_END
;TIME_ELAPSED:18.416080

M106 S255
;LAYER_CHANGE
;Z:0.4
;HEIGHT:0.2
;BEFORE_LAYER_CHANGE
;0.4
G92 E0

;_SET_FAN_SPEED_CHANGING_LAYER
M204 P2500
; printing object Glorious Waasa (2).stl id:16436144047851250 copy 0
M204 T2500
G1 Z.4 F9000
G1 X140.396 Y81.06
G1 E1.2 F1800
M204 P2000
;TYPE:Inner wall
;WIDTH:0.449999
G1 F2748
G1 X140.482 Y81.503 E.01452
G1 X140.536 Y82.401 E.02893
G1 X140.48 Y83.27 E.028
G1 X140.304 Y84.155 E.02901
G1 X140.014 Y85.009 E.02899
G1 X139.605 Y85.833 E.02959
G1 X139.113 Y86.569 E.02845
G1 X138.519 Y87.247 E.02901
G1 X137.84 Y87.842 E.02901
G1 X137.09 Y88.343 E.02901
G1 X136.282 Y88.741 E.02899
G1 X135.41 Y89.035 E.02959
G1 X134.542 Y89.208 E.02845
G1 X133.642 Y89.267 E.02901
G1 X132.742 Y89.208 E.02901
G1 X131.857 Y89.032 E.02901
G1 X131.003 Y88.742 E.02901
G1 X130.194 Y88.343 E.02901
G1 X129.444 Y87.842 E.02901
G1 X128.766 Y87.247 E.02899
G1 X128.161 Y86.554 E.02959
G1 X127.669 Y85.818 E.02845
G1 X127.271 Y85.01 E.02899
G1 X126.977 Y84.138 E.02959
G1 X126.804 Y83.27 E.02845
G1 X126.745 Y82.371 E.02899
G1 X126.808 Y81.453 E.02959
G1 X126.98 Y80.585 E.02845
G1 X127.27 Y79.731 E.02901
G1 X127.669 Y78.922 E.02901
G1 X128.17 Y78.172 E.02901
G1 X128.765 Y77.493 E.02901
G1 X129.444 Y76.899 E.02901
G1 X130.194 Y76.397 E.02901
G1 X131.003 Y75.998 E.02901
G1 X131.857 Y75.708 E.02901
G1 X132.742 Y75.532 E.02901
G1 X133.642 Y75.473 E.02901
G1 X134.542 Y75.532 E.02901
G1 X135.427 Y75.708 E.02901
G1 X136.281 Y75.998 E.02901
G1 X137.09 Y76.397 E.02901
G1 X137.84 Y76.899 E.02901
G1 X138.519 Y77.493 E.02901
G1 X139.113 Y78.172 E.02901
G1 X139.615 Y78.922 E.02901
G1 X139.999 Y79.701 E.02794
G3 X140.31 Y80.617 I-25.352 J9.119 E.0311
G1 X140.388 Y81.021 E.01323
G1 X140.695 Y80.544 F9000
M204 P1000
;TYPE:Outer wall
;WIDTH:0.419999
G1 F2748
G1 X140.873 Y81.478 E.02832
G1 X140.928 Y82.427 E.02833
G1 X140.869 Y83.322 E.0267
G1 X140.683 Y84.257 E.0284
G1 X140.377 Y85.159 E.0284
G1 X139.945 Y86.03 E.02894
G1 X139.425 Y86.808 E.02787
G1 X138.796 Y87.525 E.0284
G1 X138.08 Y88.153 E.0284
G1 X137.287 Y88.683 E.0284
G1 X136.432 Y89.105 E.0284
G1 X135.511 Y89.415 E.02894
G1 X134.593 Y89.597 E.02787
G1 X133.642 Y89.66 E.0284
G1 X132.69 Y89.597 E.0284
G1 X131.755 Y89.411 E.0284
G1 X130.852 Y89.105 E.0284
G1 X129.997 Y88.683 E.0284
G1 X129.204 Y88.153 E.0284
G1 X128.488 Y87.525 E.02839
G1 X127.849 Y86.793 E.02894
G1 X127.329 Y86.015 E.02787
G1 X126.907 Y85.16 E.0284
G1 X126.597 Y84.239 E.02894
G1 X126.415 Y83.322 E.02787
G1 X126.352 Y82.37 E.0284
G1 X126.418 Y81.401 E.02894
G1 X126.601 Y80.483 E.02787
G1 X126.907 Y79.581 E.0284
G1 X127.329 Y78.725 E.0284
G1 X127.859 Y77.933 E.0284
G1 X128.487 Y77.216 E.0284
G1 X129.204 Y76.587 E.0284
G1 X129.997 Y76.057 E.0284
G1 X130.852 Y75.635 E.0284
G1 X131.755 Y75.329 E.0284
G1 X132.69 Y75.143 E.0284
G1 X133.642 Y75.081 E.0284
G1 X134.593 Y75.143 E.0284
G1 X135.529 Y75.329 E.0284
G1 X136.432 Y75.635 E.0284
G1 X137.287 Y76.057 E.0284
G1 X138.08 Y76.587 E.0284
G1 X138.796 Y77.216 E.0284
G1 X139.425 Y77.933 E.0284
G1 X139.955 Y78.725 E.0284
G1 X140.351 Y79.528 E.02665
G3 X140.684 Y80.505 I-17.367 J6.462 E.03077
G1 E-1.2 F2400
;WIPE_START
G1 F9000
G1 X140.873 Y81.478
G1 X140.928 Y82.427
G1 X140.924 Y82.486
;WIPE_END
G1 X137.111 Y82.317 Z.6
M73 P4 R8
G1 X127.951 Y81.912 Z.6
G1 Z.4
G1 E1.2 F1800
M204 P2000
;TYPE:Inner wall
;WIDTH:0.449999
G1 F2748
G1 X127.986 Y81.624 E.00931
G3 X128.113 Y80.826 I24.321 J3.443 E.026
G1 X128.197 Y80.479 E.01147
G1 X128.945 Y79.01 E.05304
G3 X130.218 Y77.696 I22.467 J20.506 E.05882
G3 X131.835 Y76.841 I9.803 J16.567 E.05884
G3 X133.637 Y76.527 I6.901 J34.259 E.05882
G3 X135.447 Y76.785 I-2.513 J24.12 E.05883
G1 X135.841 Y76.953 E.01377
G1 X137.09 Y77.59 E.04507
G3 X138.403 Y78.863 I-20.452 J22.411 E.05882
G3 X139.259 Y80.479 I-17.483 J10.288 E.05883
G1 X139.337 Y80.791 E.01033
G1 X139.573 Y82.281 E.04852
G3 X139.315 Y84.092 I-27.168 J-2.948 E.05883
G3 X138.51 Y85.734 I-15.975 J-6.811 E.05884
G3 X137.237 Y87.047 I-25.209 J-23.164 E.05882
G3 X135.62 Y87.903 I-12.046 J-20.805 E.05883
G1 X135.19 Y88 E.01417
G1 X133.818 Y88.217 E.04466
G3 X132.008 Y87.959 I3.285 J-29.534 E.05882
G3 X130.365 Y87.154 I7.454 J-17.287 E.05884
G3 X129.052 Y85.881 I23.184 J-25.229 E.05882
G3 X128.197 Y84.264 I19.891 J-11.562 E.05883
G1 X128.11 Y83.898 E.01212
G1 X127.882 Y82.463 E.04673
G1 X127.946 Y81.951 E.01656
G1 X128.27 Y82.401 F9000
M204 P1000
;TYPE:Outer wall
;WIDTH:0.419999
G1 F2748
G3 X128.5 Y80.887 I59.428 J8.271 E.04562
G1 X128.546 Y80.657 E.00699
G1 X129.295 Y79.188 E.04913
G3 X130.496 Y77.974 I54.783 J52.993 E.05087
G3 X132.069 Y77.172 I15.596 J28.665 E.05261
G1 X133.698 Y76.914 E.04913
G3 X135.386 Y77.172 I-7.99 J57.922 E.05087
G3 X136.912 Y77.939 I-46.59 J94.573 E.05087
G3 X138.126 Y79.14 I-52.839 J54.627 E.05087
G3 X138.909 Y80.657 I-41.419 J22.348 E.05087
G3 X139.185 Y82.342 I-94.394 J16.339 E.05087
G3 X138.927 Y84.03 I-66.688 J-9.33 E.05087
G3 X138.091 Y85.638 I-15.83 J-7.211 E.05401
G1 X136.96 Y86.77 E.04768
G3 X135.442 Y87.553 I-27.308 J-51.026 E.05087
G3 X133.757 Y87.83 I-17.808 J-103.353 E.05087
G3 X132.069 Y87.572 I10.367 J-73.476 E.05087
G1 X130.914 Y86.994 E.03846
G1 X130.454 Y86.728 E.01583
G1 X129.329 Y85.604 E.04737
G3 X128.546 Y84.086 I48.381 J-25.942 E.05087
G3 X128.276 Y82.441 I96.927 J-16.754 E.04968
G1 E-1.2 F2400
;WIPE_START
G1 F9000
G1 X128.5 Y80.887
G1 X128.546 Y80.657
G1 X128.635 Y80.483
;WIPE_END
G1 Z.6
G1 X140.193 Y82.423
G1 Z.6
G1 Z.4
G1 E1.2 F1800
M204 P2500
;TYPE:Internal solid infill
;WIDTH:0.34304
G1 F2748
G1 X140.124 Y81.527 E.0213
G1 X139.967 Y80.685 E.0203
G1 X139.688 Y79.877 E.02028
G1 X139.308 Y79.111 E.02027
G1 X139.009 Y78.633 E.01337
G1 X138.267 Y77.759 E.02715
G1 X137.687 Y77.232 E.01859
;WIDTH:0.36932
G1 X136.915 Y76.723 E.02386
G1 X136.15 Y76.342 E.02202
G1 X135.341 Y76.07 E.02201
G1 X134.504 Y75.908 E.02199
G2 X133.607 Y75.843 I-1.063 J8.335 E.0232
;WIDTH:0.393956
G2 X131.965 Y76.068 I.316 J8.392 E.04604
G1 X131.161 Y76.35 E.02362
G1 X130.399 Y76.729 E.0236
G2 X129.667 Y77.209 I3.813 J6.604 E.02428
;WIDTH:0.414781
G2 X128.522 Y78.349 I5.311 J6.476 E.04754
G1 X128.02 Y79.11 E.02677
G1 X127.641 Y79.871 E.02498
G1 X127.453 Y80.378 E.01588
G1 X127.209 Y81.493 E.03354
G1 X127.135 Y82.303 E.02387
G1 X127.202 Y83.205 E.02658
G1 X127.354 Y84.025 E.0245
G2 X128.354 Y86.163 I6.83 J-1.894 E.06966
G1 X129.037 Y86.959 E.0308
G1 X129.667 Y87.532 E.02501
G1 X130.377 Y88.001 E.02501
G1 X131.139 Y88.38 E.025
;WIDTH:0.382085
G2 X133.542 Y88.895 I2.668 J-6.585 E.06618
G1 X134.482 Y88.836 E.02523
G1 X135.305 Y88.682 E.02243
;WIDTH:0.350439
G1 X135.853 Y88.512 E.01395
G1 X136.897 Y88.029 E.02793
G1 X137.475 Y87.667 E.01657
G1 X138.253 Y86.996 E.02496
G1 X138.829 Y86.362 E.0208
G1 X139.289 Y85.662 E.02036
G1 X139.68 Y84.881 E.02121
;WIDTH:0.333878
G1 X139.868 Y84.383 E.01223
G1 X140.12 Y83.233 E.02706
G1 X140.189 Y82.463 E.01778
G1 E-1.2 F2400
;WIPE_START
G1 F9000
G1 X140.12 Y83.233
G1 X139.868 Y84.383
G1 X139.851 Y84.429
;WIPE_END
G1 X136.135 Y83.56 Z.6
G1 X127.6 Y81.563 Z.6
G1 Z.4
G1 E1.2 F1800
;WIDTH:0.414286
G1 F2748
G3 X127.813 Y80.411 I11.481 J1.532 E.03439
G3 X128.606 Y78.838 I18.44 J8.307 E.0517
G1 X128.782 Y78.593 E.00885
G3 X129.909 Y77.467 I17.748 J16.644 E.04673
;WIDTH:0.388175
G1 X130.116 Y77.304 E.00719
G3 X131.925 Y76.426 I7.417 J12.973 E.05488
G3 X133.642 Y76.16 I4.225 J21.63 E.04741
G3 X135.261 Y76.39 I-1.036 J13.113 E.04463
;WIDTH:0.350555
G1 X135.676 Y76.482 E.01033
G3 X137.248 Y77.277 I-8.523 J18.801 E.04283
G1 X137.485 Y77.448 E.0071
G3 X138.649 Y78.617 I-16.037 J17.118 E.04009
G3 X139.409 Y79.995 I-9.062 J5.902 E.03827
;WIDTH:0.338628
G1 X139.647 Y80.577 E.0147
